X:1
T:My Mind Will Never Be Easy (slip jig)
M:9/8
L:1/8
R:slip jig
O:Trad. (2.10.2014/NS)
K:Em
gf|"Em"edB B2"D"A G2A|"C"Bdd ~d2B dgf|"C"edB B2"D"A G2A|"Em"Bee ~e2d egf|
"Em"edB B2"D"A G2A|"C"Bdd ~d2B ~d3|"C"def gd"D"B G2A|"Em"Bee ~e2d ~e3||
|:"C"def ga"Em/H"f g2d|"D/A"Bdd ~d2B ~d2B| "C"deg ag"D"e dBA|"Em"Bee ~e2d ~ e3:|
